X: 35982
T: Saratoga, The
R: hornpipe
M: 4/4
K: Gmajor
Bc|~d3B ~e3B|dBGB ~d3B|cBAc BAGB|Addc d2Bc|
~d3B ~e3B|dBGB defg|efga fgab|g2b2 g2g2|
bBaB gBfB|gBfB efge|fB^df bagf|gafg e3|
bBaB gBfB|gBfB efge|fB^df bagf|gafg e3||

